;Generated by Cura LulzBot Edition GCodeWriter Version: 3.6.22
;FLAVOR:Marlin
;TIME:1043
;Filament used: 0.47154m
;Layer height: 0.25
;Generated with Cura_SteamEngine 3.6.22
M82 ;absolute extrusion mode
;This G-Code has been generated specifically for the LulzBot TAZ 6 with standard extruder
M73 P0 ; clear GLCD progress bar
M75 ; start GLCD timer
G26 ; clear potential 'probe fail' condition
M107 ; disable fans
M420 S0 ; disable previous leveling matrix
G90 ; absolute positioning
M82 ; set extruder to absolute mode
G92 E0 ; set extruder position to 0
M140 S60.0 ; start bed heating up
M109 R140 ; soften filament before homing Z
G28 ; Home all axis
G1 E-30 F100 ; retract filament
M109 R140 ; wait for extruder to reach wiping temp
G1 X-15 Y100 F3000 ; move above wiper pad
G1 Z1 ; push nozzle into wiper
G1 X-17 Y95 F1000 ; slow wipe
G1 X-17 Y90 F1000 ; slow wipe
G1 X-17 Y85 F1000 ; slow wipe
G1 X-15 Y90 F1000 ; slow wipe
G1 X-17 Y80 F1000 ; slow wipe
G1 X-15 Y95 F1000 ; slow wipe
G1 X-17 Y75 F2000 ; fast wipe
G1 X-15 Y65 F2000 ; fast wipe
G1 X-17 Y70 F2000 ; fast wipe
G1 X-15 Y60 F2000 ; fast wipe
G1 X-17 Y55 F2000 ; fast wipe
G1 X-15 Y50 F2000 ; fast wipe
G1 X-17 Y40 F2000 ; fast wipe
G1 X-15 Y45 F2000 ; fast wipe
G1 X-17 Y35 F2000 ; fast wipe
G1 X-15 Y40 F2000 ; fast wipe
G1 X-17 Y70 F2000 ; fast wipe
G1 X-15 Y30 Z2 F2000 ; fast wipe
G1 X-17 Y35 F2000 ; fast wipe
G1 X-15 Y25 F2000 ; fast wipe
G1 X-17 Y30 F2000 ; fast wipe
G1 X-15 Y25 Z1.5 F1000 ; slow wipe
G1 X-17 Y23 F1000 ; slow wipe
G1 Z10 ; raise extruder
M109 R140 ; wait for extruder to reach probe temp
G1 X-9 Y-9 ; move above first probe point
M204 S100 ; set probing acceleration
G29 ; start auto-leveling sequence
M420 S1 ; activate bed level matrix
M425 Z			     ; use measured Z backlash for compensation
M425 Z F0		     ; turn off measured Z backlash compensation. (if activated in the quality settings, this command will automatically be ignored)
M204 S500 ; restore standard acceleration
G1 X0 Y0 Z15 F5000 ; move up off last probe point
G4 S1 ; pause
M400 ; wait for moves to finish
M117 Heating... ; progress indicator message on LCD
M109 R210 ; wait for extruder to reach printing temp
M190 R60.0 ; wait for bed to reach printing temp
G1 Z2 E0 F75 ; prime tiny bit of filament into the nozzle
M117 TAZ 6 Printing... ; progress indicator message on LCD

M221 S100 T0
G92 E0
G1 F600 E-1.75
;LAYER_COUNT:4
;LAYER:0
M107
G0 F2625 X65.399 Y68.653 Z0.425
;TYPE:SKIRT
G1 F600 E0
G1 F900 X69.143 Y64.92 E0.17611
G1 X69.285 Y64.787 E0.18259
G1 X73.984 Y60.631 E0.39156
G1 X74.141 Y60.5 E0.39837
G1 X79.104 Y56.637 E0.60786
G1 X79.287 Y56.505 E0.61538
G1 X85.355 Y52.426 E0.85893
G1 X85.518 Y52.323 E0.86535
G1 X90.06 Y49.647 E1.04095
G1 X90.25 Y49.544 E1.04815
G1 X96.777 Y46.261 E1.29152
G1 X96.971 Y46.171 E1.29865
G1 X102.69 Y43.753 E1.50548
G1 X102.86 Y43.686 E1.51156
G1 X107.875 Y41.889 E1.68902
G1 X108.08 Y41.823 E1.69619
G1 X115.077 Y39.829 E1.93854
G1 X115.287 Y39.777 E1.94575
G1 X121.455 Y38.455 E2.15587
G1 X121.632 Y38.422 E2.16187
G1 X126.79 Y37.613 E2.33579
G1 X127.004 Y37.587 E2.34297
G1 X134.312 Y36.932 E2.58737
G1 X134.505 Y36.92 E2.59382
G1 X139.747 Y36.763 E2.76851
G1 X139.962 Y36.764 E2.77567
G1 X147.256 Y37.03 E3.0188
G1 X147.449 Y37.043 E3.02524
G1 X152.702 Y37.548 E3.20103
G1 X152.916 Y37.576 E3.20822
G1 X160.089 Y38.749 E3.45032
G1 X160.299 Y38.79 E3.45745
G1 X166.391 Y40.205 E3.66578
G1 X166.567 Y40.251 E3.67184
G1 X171.648 Y41.734 E3.84815
G1 X171.853 Y41.802 E3.85535
G1 X178.734 Y44.319 E4.09941
G1 X178.914 Y44.39 E4.10585
G1 X183.74 Y46.488 E4.28114
G1 X183.934 Y46.58 E4.28829
G1 X190.397 Y49.913 E4.53052
G1 X190.566 Y50.007 E4.53696
G1 X195.104 Y52.7 E4.71274
G1 X195.286 Y52.816 E4.71993
G1 X201.32 Y56.962 E4.9638
G1 X201.476 Y57.077 E4.97025
G1 X205.621 Y60.304 E5.14523
G1 X205.785 Y60.44 E5.15233
G1 X211.207 Y65.266 E5.39412
G1 X211.347 Y65.399 E5.40055
G1 X215.08 Y69.143 E5.57666
G1 X215.213 Y69.285 E5.58315
G1 X219.369 Y73.984 E5.79211
G1 X219.5 Y74.141 E5.79892
G1 X223.363 Y79.104 E6.00841
G1 X223.495 Y79.287 E6.01593
G1 X227.574 Y85.355 E6.25948
G1 X227.677 Y85.518 E6.2659
G1 X230.353 Y90.06 E6.44151
G1 X230.456 Y90.25 E6.4487
G1 X233.739 Y96.777 E6.69208
G1 X233.829 Y96.971 E6.6992
G1 X236.247 Y102.69 E6.90603
G1 X236.313 Y102.86 E6.9121
G1 X238.11 Y107.874 E7.08952
G1 X238.177 Y108.079 E7.09671
G1 X240.171 Y115.077 E7.33909
G1 X240.223 Y115.287 E7.3463
G1 X241.545 Y121.455 E7.55642
G1 X241.578 Y121.632 E7.56242
G1 X242.387 Y126.789 E7.7363
G1 X242.413 Y127.003 E7.74348
G1 X243.068 Y134.312 E7.98792
G1 X243.08 Y134.505 E7.99437
G1 X243.237 Y139.746 E8.16902
G1 X243.236 Y139.961 E8.17619
G1 X242.97 Y147.256 E8.41935
G1 X242.957 Y147.449 E8.42579
G1 X242.452 Y152.702 E8.60158
G1 X242.424 Y152.916 E8.60877
G1 X241.251 Y160.089 E8.85087
G1 X241.21 Y160.299 E8.858
G1 X239.795 Y166.391 E9.06633
G1 X239.749 Y166.567 E9.07239
G1 X238.266 Y171.648 E9.2487
G1 X238.198 Y171.853 E9.2559
G1 X235.681 Y178.734 E9.49996
G1 X235.61 Y178.914 E9.5064
G1 X233.512 Y183.74 E9.68169
G1 X233.42 Y183.934 E9.68884
G1 X230.087 Y190.397 E9.93107
G1 X229.993 Y190.566 E9.93751
G1 X227.3 Y195.104 E10.11329
G1 X227.184 Y195.286 E10.12048
G1 X223.038 Y201.32 E10.36435
G1 X222.923 Y201.476 E10.3708
G1 X219.696 Y205.621 E10.54578
G1 X219.56 Y205.785 E10.55288
G1 X214.734 Y211.207 E10.79467
G1 X214.601 Y211.347 E10.8011
G1 X210.857 Y215.08 E10.97721
G1 X210.715 Y215.213 E10.9837
G1 X206.016 Y219.369 E11.19266
G1 X205.859 Y219.5 E11.19947
G1 X200.896 Y223.363 E11.40896
G1 X200.713 Y223.495 E11.41648
G1 X194.657 Y227.567 E11.65957
G1 X194.494 Y227.67 E11.66599
G1 X189.94 Y230.353 E11.84206
G1 X189.75 Y230.456 E11.84926
G1 X183.223 Y233.739 E12.09263
G1 X183.029 Y233.829 E12.09975
G1 X177.31 Y236.247 E12.30658
G1 X177.14 Y236.314 E12.31267
G1 X172.125 Y238.111 E12.49012
G1 X171.92 Y238.177 E12.49729
G1 X164.923 Y240.171 E12.73964
G1 X164.713 Y240.223 E12.74685
G1 X158.545 Y241.545 E12.95698
G1 X158.368 Y241.578 E12.96297
G1 X153.21 Y242.387 E13.13689
G1 X152.996 Y242.413 E13.14407
G1 X145.688 Y243.068 E13.38848
G1 X145.495 Y243.08 E13.39492
G1 X140.253 Y243.237 E13.56961
G1 X140.038 Y243.236 E13.57677
G1 X132.744 Y242.97 E13.8199
G1 X132.551 Y242.957 E13.82634
G1 X127.298 Y242.452 E14.00213
G1 X127.084 Y242.424 E14.00932
G1 X119.911 Y241.251 E14.25143
G1 X119.701 Y241.21 E14.25855
G1 X113.609 Y239.795 E14.46688
G1 X113.433 Y239.749 E14.47294
G1 X108.352 Y238.266 E14.64925
G1 X108.147 Y238.198 E14.65645
G1 X101.266 Y235.681 E14.90051
G1 X101.086 Y235.61 E14.90696
G1 X96.26 Y233.512 E15.08224
G1 X96.066 Y233.42 E15.0894
G1 X89.603 Y230.087 E15.33162
G1 X89.434 Y229.993 E15.33806
G1 X84.896 Y227.3 E15.51384
G1 X84.714 Y227.184 E15.52103
G1 X78.68 Y223.038 E15.7649
G1 X78.524 Y222.923 E15.77135
G1 X74.378 Y219.695 E15.94638
G1 X74.214 Y219.559 E15.95348
G1 X68.793 Y214.734 E16.19522
G1 X68.653 Y214.601 E16.20165
G1 X64.919 Y210.856 E16.37781
G1 X64.786 Y210.714 E16.38429
G1 X60.631 Y206.016 E16.59321
G1 X60.5 Y205.859 E16.60002
G1 X56.637 Y200.896 E16.80952
G1 X56.505 Y200.713 E16.81703
G1 X52.426 Y194.645 E17.06058
G1 X52.323 Y194.482 E17.06701
G1 X49.646 Y189.939 E17.24265
G1 X49.543 Y189.749 E17.24985
G1 X46.261 Y183.223 E17.49318
G1 X46.171 Y183.029 E17.5003
G1 X43.753 Y177.31 E17.70713
G1 X43.686 Y177.14 E17.71322
G1 X41.889 Y172.125 E17.89067
G1 X41.823 Y171.92 E17.89784
G1 X39.829 Y164.923 E18.1402
G1 X39.777 Y164.713 E18.1474
G1 X38.455 Y158.545 E18.35753
G1 X38.422 Y158.368 E18.36352
G1 X37.613 Y153.21 E18.53744
G1 X37.587 Y152.996 E18.54462
G1 X36.932 Y145.688 E18.78903
G1 X36.92 Y145.495 E18.79547
G1 X36.763 Y140.254 E18.97013
G1 X36.764 Y140.039 E18.97729
G1 X37.03 Y132.744 E19.22045
G1 X37.043 Y132.551 E19.22689
G1 X37.548 Y127.298 E19.40268
G1 X37.576 Y127.084 E19.40987
G1 X38.749 Y119.911 E19.65198
G1 X38.79 Y119.701 E19.65911
G1 X40.205 Y113.609 E19.86743
G1 X40.251 Y113.433 E19.87349
G1 X41.734 Y108.352 E20.04981
G1 X41.802 Y108.147 E20.057
G1 X44.319 Y101.266 E20.30106
G1 X44.39 Y101.086 E20.30751
G1 X46.488 Y96.26 E20.4828
G1 X46.58 Y96.066 E20.48995
G1 X49.913 Y89.603 E20.73217
G1 X50.007 Y89.434 E20.73862
G1 X52.7 Y84.896 E20.91439
G1 X52.816 Y84.714 E20.92158
G1 X56.962 Y78.68 E21.16545
G1 X57.077 Y78.524 E21.17191
G1 X60.304 Y74.379 E21.34689
G1 X60.44 Y74.215 E21.35398
G1 X65.266 Y68.793 E21.59577
G1 X65.399 Y68.653 E21.6022
G1 F600 E19.8522
;MESH:
G0 F2625 X71.069 Y66.639
G0 X72.083 Y67.654
G0 X93.907 Y56.028
G0 X99.44 Y53.221
G0 X105.142 Y50.778
G0 X110.989 Y48.708
G0 X116.961 Y47.022
G0 X120.4 Y46.288
G0 X146.226 Y41.046
G0 X146.232 Y40.947
;TYPE:WALL-INNER
G1 F600 E21.6022
G1 F900 X152.442 Y41.534 E21.80998
G1 X158.598 Y42.509 E22.0176
G1 X164.689 Y43.871 E22.2255
G1 X170.675 Y45.609 E22.43313
G1 X176.531 Y47.717 E22.64045
G1 X182.262 Y50.197 E22.84846
G1 X187.815 Y53.027 E23.05607
G1 X193.168 Y56.193 E23.26323
G1 X198.345 Y59.711 E23.47173
G1 X203.266 Y63.53 E23.67922
G1 X207.93 Y67.64 E23.88629
G1 X212.36 Y72.07 E24.09498
G1 X216.47 Y76.734 E24.30206
G1 X220.289 Y81.655 E24.50955
G1 X223.807 Y86.832 E24.71805
G1 X226.973 Y92.185 E24.92521
G1 X229.801 Y97.735 E25.1327
G1 X232.284 Y103.472 E25.34093
G1 X234.389 Y109.319 E25.54793
G1 X236.128 Y115.306 E25.7556
G1 X237.493 Y121.409 E25.96392
G1 X238.465 Y127.552 E26.17109
G1 X239.054 Y133.776 E26.37934
G1 X239.249 Y140 E26.58677
G1 X239.054 Y146.224 E26.79419
G1 X238.466 Y152.442 E27.00224
G1 X237.493 Y158.591 E27.20961
G1 X236.129 Y164.689 E27.41776
G1 X234.391 Y170.675 E27.62539
G1 X232.284 Y176.527 E27.83257
G1 X229.803 Y182.262 E28.04072
G1 X226.973 Y187.815 E28.24833
G1 X223.807 Y193.168 E28.45549
G1 X220.291 Y198.342 E28.66387
G1 X216.47 Y203.266 E28.87148
G1 X212.36 Y207.93 E29.07855
G1 X207.934 Y212.356 E29.28705
G1 X203.266 Y216.47 E29.49431
G1 X198.345 Y220.289 E29.70181
G1 X193.168 Y223.807 E29.9103
G1 X187.815 Y226.973 E30.11746
G1 X182.262 Y229.803 E30.32507
G1 X176.531 Y232.283 E30.53308
G1 X170.675 Y234.391 E30.7404
G1 X164.689 Y236.129 E30.94803
G1 X158.598 Y237.491 E31.15594
G1 X152.442 Y238.466 E31.36355
G1 X146.232 Y239.053 E31.57133
G1 X140 Y239.249 E31.77902
G1 X133.768 Y239.053 E31.98672
G1 X127.558 Y238.466 E32.19449
G1 X121.402 Y237.491 E32.40211
G1 X115.311 Y236.129 E32.61001
G1 X109.325 Y234.391 E32.81764
G1 X103.469 Y232.283 E33.02496
G1 X97.738 Y229.803 E33.23297
G1 X92.185 Y226.973 E33.44058
G1 X86.832 Y223.807 E33.64774
G1 X81.655 Y220.289 E33.85624
G1 X76.734 Y216.47 E34.06373
G1 X72.066 Y212.356 E34.27099
G1 X67.64 Y207.93 E34.47949
G1 X63.53 Y203.266 E34.68657
G1 X59.709 Y198.342 E34.89418
G1 X56.193 Y193.168 E35.10256
G1 X53.027 Y187.815 E35.30972
G1 X50.197 Y182.262 E35.51733
G1 X47.716 Y176.527 E35.72547
G1 X45.609 Y170.675 E35.93265
G1 X43.871 Y164.689 E36.14028
G1 X42.507 Y158.591 E36.34843
G1 X41.534 Y152.442 E36.5558
G1 X40.946 Y146.224 E36.76385
G1 X40.751 Y140 E36.97128
G1 X40.946 Y133.776 E37.1787
G1 X41.535 Y127.552 E37.38695
G1 X42.507 Y121.409 E37.59412
G1 X43.872 Y115.306 E37.80244
G1 X45.611 Y109.319 E38.01011
G1 X47.716 Y103.472 E38.21711
G1 X50.199 Y97.735 E38.42535
G1 X53.027 Y92.185 E38.63284
G1 X56.193 Y86.832 E38.84
G1 X59.711 Y81.655 E39.0485
G1 X63.53 Y76.734 E39.25599
G1 X67.64 Y72.07 E39.46306
G1 X72.07 Y67.64 E39.67175
G1 X76.734 Y63.53 E39.87882
G1 X81.655 Y59.711 E40.08632
G1 X86.832 Y56.193 E40.29481
G1 X92.185 Y53.027 E40.50197
G1 X97.738 Y50.197 E40.70958
G1 X103.469 Y47.717 E40.91759
G1 X109.325 Y45.609 E41.12491
G1 X115.311 Y43.871 E41.33254
G1 X121.402 Y42.509 E41.54045
G1 X127.558 Y41.534 E41.74806
G1 X133.768 Y40.947 E41.95584
G1 X140 Y40.751 E42.16353
G1 X146.232 Y40.947 E42.37123
G0 F2625 X146.226 Y41.046
G0 X171.95 Y49.696
G0 X177.729 Y51.953
G0 X183.349 Y54.581
G0 X188.787 Y57.565
G0 X194.021 Y60.896
G0 X199.028 Y64.559
G0 X203.788 Y68.538
G0 X208.28 Y72.817
G0 X212.486 Y77.377
G0 X216.386 Y82.201
G0 X219.969 Y87.266
G0 X223.214 Y92.554
G0 X226.11 Y98.039
G0 X228.646 Y103.701
G0 X230.809 Y109.516
G0 X232.593 Y115.458
G0 X233.987 Y121.503
G0 X234.987 Y127.625
G0 X235.589 Y133.801
G0 X235.79 Y140
G0 X235.589 Y146.199
G0 X234.987 Y152.375
G0 X233.987 Y158.497
G0 X232.593 Y164.542
G0 X230.809 Y170.484
G0 X228.646 Y176.299
G0 X226.11 Y181.961
G0 X223.214 Y187.446
G0 X219.969 Y192.734
G0 X216.386 Y197.799
G0 X212.486 Y202.623
G0 X208.28 Y207.183
G0 X203.788 Y211.462
G0 X199.028 Y215.441
G0 X194.021 Y219.104
G0 X188.787 Y222.435
G0 X183.893 Y225.12
G0 X177.753 Y228.102
G0 X177.714 Y228.011
G1 F900 X183.331 Y225.384 E42.57778
G1 X188.767 Y222.401 E42.78433
G1 X193.999 Y219.071 E42.99091
G1 X199.004 Y215.41 E43.19747
G1 X203.762 Y211.433 E43.40404
G1 X208.252 Y207.155 E43.61062
G1 X212.456 Y202.597 E43.81717
G1 X216.355 Y197.775 E44.02373
G1 X219.936 Y192.712 E44.2303
G1 X223.18 Y187.427 E44.43686
G1 X226.075 Y181.944 E44.6434
G1 X228.609 Y176.284 E44.84997
G1 X230.772 Y170.472 E45.05654
G1 X232.555 Y164.532 E45.26313
G1 X233.948 Y158.49 E45.46967
G1 X234.948 Y152.37 E45.67623
G1 X235.55 Y146.197 E45.88283
G1 X235.75 Y140 E46.08936
G1 X235.55 Y133.803 E46.29589
G1 X234.948 Y127.63 E46.50249
G1 X233.948 Y121.51 E46.70906
G1 X232.555 Y115.468 E46.9156
G1 X230.772 Y109.528 E47.12218
G1 X228.609 Y103.716 E47.32876
G1 X226.075 Y98.056 E47.53533
G1 X223.18 Y92.573 E47.74186
G1 X219.936 Y87.288 E47.94842
G1 X216.355 Y82.225 E48.155
G1 X212.456 Y77.403 E48.36156
G1 X208.252 Y72.845 E48.56811
G1 X203.762 Y68.567 E48.77469
G1 X199.004 Y64.59 E48.98125
G1 X193.999 Y60.929 E49.18781
G1 X188.767 Y57.599 E49.3944
G1 X183.331 Y54.616 E49.60094
G1 X177.714 Y51.989 E49.8075
G1 X171.937 Y49.733 E50.01409
G1 X166.028 Y47.855 E50.22062
G1 X160.009 Y46.363 E50.42718
G1 X153.906 Y45.265 E50.63374
G1 X147.744 Y44.563 E50.84033
G1 X141.55 Y44.262 E51.04689
G1 X135.351 Y44.362 E51.25341
G1 X129.169 Y44.864 E51.46001
G1 X123.034 Y45.765 E51.66656
G1 X116.97 Y47.06 E51.87311
G1 X111.001 Y48.746 E52.07972
G1 X105.156 Y50.815 E52.28626
G1 X99.456 Y53.257 E52.49282
G1 X93.926 Y56.063 E52.69938
G1 X88.59 Y59.222 E52.90594
G1 X83.469 Y62.719 E53.1125
G1 X78.585 Y66.54 E53.31906
G1 X73.958 Y70.67 E53.52566
G1 X69.609 Y75.09 E53.73221
G1 X65.556 Y79.782 E53.93874
G1 X61.814 Y84.728 E54.14533
G1 X58.4 Y89.904 E54.35187
G1 X55.329 Y95.291 E54.55842
G1 X52.612 Y100.867 E54.76504
G1 X50.262 Y106.604 E54.97155
G1 X48.288 Y112.483 E55.17813
G1 X46.7 Y118.478 E55.38471
G1 X45.502 Y124.562 E55.59126
G1 X44.701 Y130.711 E55.79782
G1 X44.3 Y136.9 E56.00441
G1 X44.3 Y143.1 E56.21093
G1 X44.701 Y149.289 E56.41752
G1 X45.502 Y155.438 E56.62408
G1 X46.7 Y161.522 E56.83063
G1 X48.288 Y167.517 E57.03721
G1 X50.262 Y173.396 E57.24379
G1 X52.612 Y179.133 E57.4503
G1 X55.329 Y184.709 E57.65692
G1 X58.4 Y190.096 E57.86347
G1 X61.814 Y195.272 E58.07001
G1 X65.556 Y200.218 E58.2766
G1 X69.609 Y204.91 E58.48313
G1 X73.958 Y209.33 E58.68968
G1 X78.585 Y213.46 E58.89628
G1 X83.469 Y217.281 E59.10284
G1 X88.59 Y220.778 E59.3094
G1 X93.926 Y223.937 E59.51596
G1 X99.456 Y226.743 E59.72252
G1 X105.156 Y229.185 E59.92908
G1 X111.001 Y231.254 E60.13562
G1 X116.97 Y232.94 E60.34223
G1 X123.034 Y234.235 E60.54877
G1 X129.169 Y235.136 E60.75533
G1 X135.351 Y235.638 E60.96193
G1 X141.55 Y235.738 E61.16845
G1 X147.744 Y235.437 E61.37501
G1 X153.906 Y234.735 E61.5816
G1 X160.009 Y233.637 E61.78816
G1 X166.028 Y232.145 E61.99472
G1 X171.937 Y230.267 E62.20125
G1 X177.714 Y228.011 E62.40784
G0 F2625 X177.753 Y228.102
G0 X176.495 Y232.191
G0 X176.727 Y232.743
;TYPE:WALL-OUTER
G1 F900 X170.826 Y234.868 E62.61676
G1 X164.809 Y236.615 E62.82547
G1 X158.69 Y237.983 E63.03432
G1 X152.503 Y238.963 E63.24298
G1 X146.263 Y239.553 E63.45177
G1 X140 Y239.75 E63.66049
G1 X133.737 Y239.553 E63.86922
G1 X127.497 Y238.963 E64.078
G1 X121.31 Y237.983 E64.28666
G1 X115.191 Y236.615 E64.49552
G1 X109.174 Y234.868 E64.70423
G1 X103.273 Y232.743 E64.91315
G1 X97.536 Y230.26 E65.12138
G1 X91.939 Y227.408 E65.33063
G1 X86.558 Y224.226 E65.53887
G1 X81.362 Y220.695 E65.74813
G1 X76.416 Y216.857 E65.95667
G1 X71.718 Y212.716 E66.16527
G1 X67.28 Y208.278 E66.37434
G1 X63.143 Y203.584 E66.58276
G1 X59.303 Y198.635 E66.79141
